X:1
T:Christus factus est
T:Christus factus est
T:Niccolo Zingarelli
T:CPDL   —   Creative Commons Attribution Non Commercial 3.0
T:CPDL   —   Creative Commons Attribution Non Commercial 3.0
T:CPDL   —   Creative Commons Attribution Non Commercial 3.0
C:Niccolo Zingarelli
Z:CPDL   —   Creative Commons Attribution Non Commercial 3.0
%%score [ ( 1 2 ) 3 4 ]
L:1/8
Q:1/4=100
M:4/4
K:F
V:1 treble nm="Sopran\nAlt"
V:2 treble 
V:3 treble-8 nm="Tenor"
V:4 bass nm="Bass"
V:1
"^Largo"!<(! (A6!<)! B2) |!>(! A8!>)! |!<(! (c6!<)! d2) |!>(! c8!>)! |!<(! c6 ^c2!<)! | d4 d4 | %6
w: Chri- *|stus,|Chri- *|stus|fac- tus|est pro|
!f! f6 ed |!>(! c3!>)!!p! d c4 | c4 cB BA | (G3 A) !fermata!G4 |!p! E8 | F8 | F8- | (F4 E4) | F4 | %15
w: no- bis o \-||us- que * ad *|mor- * tem,|mor-|tem,|mor-||tem,|
 z4 | z8 | z8 | z2!p! C2 C2 F2 | E4 F4- |!p! F2 ED E4 | !fermata!F8 | c6 _d2 | c4 c4 |!f! =B8 | %25
w: |||us- que ad|mor- *||tem,|mor- tem|au- tem|cru-|
 c8 |!p! G6 G2 | G8 |!p! c8 | B8 | _A4 G4 | !fermata!F8 | (=A2 G2) (B2 A2) | c6 f2 | (c4 d4) | c8 | %36
w: cis,|mor- tem|au-|tem|cru-||cis.|Prop- * ter _|quod et|De- *|us|
 c4 c4 | c4 c4 |!f! (A4 =B4) | c8 |!p! c8 | (c2 =B2) (B2 A2) | ^G4 G4 | (A6 =B2) | c8 | A8 | _B8 | %47
w: ex- al-|ta- vit|il- *|lum|et|de- * dit _|il- li|no- *|men,|quod|est|
!f! G2 G2 G2 G2 | (A6 B2) | c4 c4 | f8- | f8 | f4 f4 | (f2 c2) (d2 e2) | f6 dB | G4 A4 |!p! G4 A4 | %57
w: su- per om- ne|no- *|men, quod|est|_|su- per|om- * ne _|no- * *|||
 G8 | !fermata!F8 |] %59
w: |men.|
V:2
 F8 | F8 | F8 | F8 | F6 F2 | F4 F4 | F4 F2 F2 | F3 F F4 | A4 G3 F | (E3 F) E4 | C8 | C8 | D8 | %13
w: ||||||no- bis o-|be- di- ens|||||mor-|
 C8- | C4 | (F2 A2) | (G2 F2) (E2 D2) | C8- | C8- | C8- | C8 | C8 | z8 | z8 | (_A6 F2) | E8 | %26
w: tem,|_|us- *|que _ ad _|mor-||||tem,|||||
 E6 F2 | E8 | F8 | F8- | F4 E4 | F8 | (F2 E2) (G2 F2) | A6 F2 | F8 | F8 | (F2 C2) (E2 F2) | F4 F4 | %38
w: ||||||||||||
 F8 | G8 | G8 | F4 F4 | E4 E4 | (E6 ^G2) | A8 | E8 | G8 | E2 E2 E2 E2 | (F6 G2) | A4 z4 | z4 A4 | %51
w: ||||||||||||quod|
 B8 | F4 F4 | F4 G4 | A2 G2 F4 | E4 F4 | E4 F4 | F4 E4 | F8 |] %59
w: est||||||||
V:3
!<(! (c6!<)! d2) |!>(! c8!>)! |!<(! (A6!<)! B2) |!>(! A8!>)! |!<(! A6 A2!<)! | B4 B4 |!f! d6 cB | %7
w: Chri- *|stus,|Chri- *|stus|fac- tus|est pro|no- bis o-|
!>(! A3!>)!!p! B A4 | c4 c2 c2 | c4 !fermata!c4 |!p! G8 | A8 | G8- | G8 | A4 | z4 | z8 | %17
w: be- di- ens|us- que ad|mor- tem,|mor-|tem,|mor-||tem,|||
 z4 (A2 c2) | (B2 A2) (G2 F2) | G4 A4 |!p! G6 cB | !fermata!A8 | _A6 B2 | _A4 A4 |!f! F8 | G8 | %26
w: us- *|que _ ad _|mor- *||tem,|mor- tem|au- tem|cru-|cis,|
!p! c6 =B2 | (c4 _d4) |!p! c8 | _d4 B4 | c6 B2 | !fermata!=A8 | z8 | z4 z2 A2 | (A4 B4) | A8 | %36
w: mor- tem|au- *|tem|cru- *||cis.||et|De- *|us|
 (A2 G2) (B2 A2) | c4 c4 |!f! f8 | e8 |!p! e8 | (e2 d2) (d2 c2) | =B4 B4 | (c6 d2) | e8 | c8 | d8 | %47
w: ex- * al- *|ta- vit|il-|lum|et|de- * dit _|il- li|no- *|men,|quod|est|
!f! c2 c2 c2 c2 | (c6 B2) | A4 z4 | z4 c4 | d8 | c4 d4 | c4 B4 | A2 B2 c2 d2 | c8- | %56
w: su- per om- ne|no- *|men,|quod|est|su- per|om- ne|no- * * *||
!p! c2 B2 A2 F2 | c6 B2 | !fermata!A8 |] %59
w: ||men.|
V:4
!<(! F,8!<)! |!>(! F,8!>)! |!<(! F,8!<)! |!>(! F,8!>)! |!<(! F,4 F,4!<)! | F,4 F,4 | %6
!f! F,4 F,2 F,2 |!>(! F,3!>)!!p! F, F,4 | F,4 E,2 F,2 | C,4 !fermata!C,4 |!p! (C,4 B,,4) | A,,8 | %12
 (B,,4 =B,,4 | C,8) | F,4 | z4 | z8 | z4 (F,2 A,2) | (G,2 F,2) (E,2 D,2) | C,8- |!p! C,8 | %21
 !fermata!F,8 | F,4 F,4 | F,4 F,4 |!f! _D,8 | C,8 |!p! C,6 _D,2 | (C,4 _B,,4) |!p! _A,,8 | %29
 B,,4 _D,4 | C,8 | !fermata!F,8 | z8 | z8 | z8 | z8 | (F,2 E,2) (G,2 F,2) | A,4 A,4 |!f! D8 | C8 | %40
!p! C,8 | D,4 D,4 | E,6 D,2 | (C,6 =B,,2) | A,,8 | A,8 | G,8 |!f! C2 C2 C2 _B,2 | (A,6 G,2) | %49
 F,4 z4 | z4 F,4 | B,8 | A,4 B,4 | A,4 G,4 | F,2 G,2 A,2 B,2 | C2 B,2 A,2 F,2 |!p! C,8- | C,8 | %58
 !fermata!F,8 |] %59

